images/3235162.svg

<?xml version="1.0" encoding="UTF-8"?>
<svg xmlns="http://www.w3.org/2000/svg" xmlns:xlink="http://www.w3.org/1999/xlink" width="300pt" height="300pt" viewBox="0 0 300 300" version="1.1">
<defs>
<g>
<symbol overflow="visible" id="glyph0-0">
<path style="stroke:none;" d="M 0.59375 2.125 L 0.59375 -8.46875 L 6.59375 -8.46875 L 6.59375 2.125 Z M 1.265625 1.453125 L 5.9375 1.453125 L 5.9375 -7.78125 L 1.265625 -7.78125 Z M 1.265625 1.453125 "/>
</symbol>
<symbol overflow="visible" id="glyph0-1">
<path style="stroke:none;" d="M 1.171875 -8.75 L 2.765625 -8.75 L 6.65625 -1.4375 L 6.65625 -8.75 L 7.796875 -8.75 L 7.796875 0 L 6.203125 0 L 2.328125 -7.3125 L 2.328125 0 L 1.171875 0 Z M 1.171875 -8.75 "/>
</symbol>
<symbol overflow="visible" id="glyph0-2">
<path style="stroke:none;" d="M 1.171875 -8.75 L 2.359375 -8.75 L 2.359375 -5.15625 L 6.65625 -5.15625 L 6.65625 -8.75 L 7.84375 -8.75 L 7.84375 0 L 6.65625 0 L 6.65625 -4.171875 L 2.359375 -4.171875 L 2.359375 0 L 1.171875 0 Z M 1.171875 -8.75 "/>
</symbol>
<symbol overflow="visible" id="glyph0-3">
<path style="stroke:none;" d="M 4.734375 -7.953125 C 3.867188 -7.953125 3.179688 -7.628906 2.671875 -6.984375 C 2.171875 -6.347656 1.921875 -5.472656 1.921875 -4.359375 C 1.921875 -3.265625 2.171875 -2.394531 2.671875 -1.75 C 3.179688 -1.113281 3.867188 -0.796875 4.734375 -0.796875 C 5.585938 -0.796875 6.265625 -1.113281 6.765625 -1.75 C 7.273438 -2.394531 7.53125 -3.265625 7.53125 -4.359375 C 7.53125 -5.472656 7.273438 -6.347656 6.765625 -6.984375 C 6.265625 -7.628906 5.585938 -7.953125 4.734375 -7.953125 Z M 4.734375 -8.90625 C 5.953125 -8.90625 6.925781 -8.492188 7.65625 -7.671875 C 8.394531 -6.847656 8.765625 -5.742188 8.765625 -4.359375 C 8.765625 -2.984375 8.394531 -1.882812 7.65625 -1.0625 C 6.925781 -0.238281 5.953125 0.171875 4.734375 0.171875 C 3.503906 0.171875 2.519531 -0.238281 1.78125 -1.0625 C 1.039062 -1.882812 0.671875 -2.984375 0.671875 -4.359375 C 0.671875 -5.742188 1.039062 -6.847656 1.78125 -7.671875 C 2.519531 -8.492188 3.503906 -8.90625 4.734375 -8.90625 Z M 4.734375 -8.90625 "/>
</symbol>
</g>
</defs>
<g id="surface34297">
<rect x="0" y="0" width="300" height="300" style="fill:rgb(100%,100%,100%);fill-opacity:1;stroke:none;"/>
<path style="fill:none;stroke-width:1.2;stroke-linecap:butt;stroke-linejoin:miter;stroke:rgb(0%,0%,0%);stroke-opacity:1;stroke-miterlimit:10;" d="M 156.625 223.25 L 142.28125 218.792969 "/>
<path style="fill:none;stroke-width:1.2;stroke-linecap:butt;stroke-linejoin:miter;stroke:rgb(0%,0%,100%);stroke-opacity:1;stroke-miterlimit:10;" d="M 142.28125 218.792969 L 127.9375 214.339844 "/>
<path style="fill:none;stroke-width:1.2;stroke-linecap:butt;stroke-linejoin:miter;stroke:rgb(0%,0%,100%);stroke-opacity:1;stroke-miterlimit:10;" d="M 127.9375 214.339844 L 116.90625 224.53125 "/>
<path style="fill:none;stroke-width:1.2;stroke-linecap:butt;stroke-linejoin:miter;stroke:rgb(0%,0%,0%);stroke-opacity:1;stroke-miterlimit:10;" d="M 116.90625 224.53125 L 105.875 234.726562 "/>
<path style="fill:none;stroke-width:1.2;stroke-linecap:butt;stroke-linejoin:miter;stroke:rgb(0%,0%,100%);stroke-opacity:1;stroke-miterlimit:10;" d="M 127.9375 214.339844 L 124.625 199.6875 "/>
<path style="fill:none;stroke-width:1.2;stroke-linecap:butt;stroke-linejoin:miter;stroke:rgb(0%,0%,0%);stroke-opacity:1;stroke-miterlimit:10;" d="M 124.625 199.6875 L 121.3125 185.039062 "/>
<path style=" stroke:none;fill-rule:nonzero;fill:rgb(100%,100%,100%);fill-opacity:1;" d="M 123.9375 207.339844 L 132.9375 207.339844 L 132.9375 221.339844 L 123.9375 221.339844 Z M 123.9375 207.339844 "/>
<g style="fill:rgb(0%,0%,100%);fill-opacity:1;">
  <use xlink:href="#glyph0-1" x="123.9375" y="218.478516"/>
</g>
<path style="fill:none;stroke-width:1.2;stroke-linecap:butt;stroke-linejoin:miter;stroke:rgb(0%,0%,0%);stroke-opacity:1;stroke-miterlimit:10;" d="M 121.3125 185.039062 L 92.625 176.125 "/>
<path style="fill:none;stroke-width:1.2;stroke-linecap:butt;stroke-linejoin:miter;stroke:rgb(0%,0%,0%);stroke-opacity:1;stroke-miterlimit:10;" d="M 92.625 176.125 L 70.5625 196.515625 "/>
<path style="fill:none;stroke-width:1.2;stroke-linecap:butt;stroke-linejoin:miter;stroke:rgb(0%,0%,0%);stroke-opacity:1;stroke-miterlimit:10;" d="M 85.621094 172.972656 L 67.972656 189.285156 "/>
<path style="fill:none;stroke-width:1.2;stroke-linecap:butt;stroke-linejoin:miter;stroke:rgb(0%,0%,0%);stroke-opacity:1;stroke-miterlimit:10;" d="M 86 146.824219 L 92.625 176.125 "/>
<path style="fill:none;stroke-width:1.2;stroke-linecap:butt;stroke-linejoin:miter;stroke:rgb(0%,0%,0%);stroke-opacity:1;stroke-miterlimit:10;" d="M 70.5625 196.515625 L 41.875 187.601562 "/>
<path style="fill:none;stroke-width:1.2;stroke-linecap:butt;stroke-linejoin:miter;stroke:rgb(0%,0%,0%);stroke-opacity:1;stroke-miterlimit:10;" d="M 41.875 187.601562 L 35.25 158.300781 "/>
<path style="fill:none;stroke-width:1.2;stroke-linecap:butt;stroke-linejoin:miter;stroke:rgb(0%,0%,0%);stroke-opacity:1;stroke-miterlimit:10;" d="M 48.105469 183.113281 L 42.808594 159.671875 "/>
<path style="fill:none;stroke-width:1.2;stroke-linecap:butt;stroke-linejoin:miter;stroke:rgb(0%,0%,0%);stroke-opacity:1;stroke-miterlimit:10;" d="M 35.25 158.300781 L 57.3125 137.914062 "/>
<path style="fill:none;stroke-width:1.2;stroke-linecap:butt;stroke-linejoin:miter;stroke:rgb(0%,0%,0%);stroke-opacity:1;stroke-miterlimit:10;" d="M 57.3125 137.914062 L 86 146.824219 "/>
<path style="fill:none;stroke-width:1.2;stroke-linecap:butt;stroke-linejoin:miter;stroke:rgb(0%,0%,0%);stroke-opacity:1;stroke-miterlimit:10;" d="M 58.082031 145.554688 L 81.035156 152.683594 "/>
<path style="fill:none;stroke-width:1.2;stroke-linecap:butt;stroke-linejoin:miter;stroke:rgb(0%,0%,0%);stroke-opacity:1;stroke-miterlimit:10;" d="M 86 146.824219 L 108.0625 126.4375 "/>
<path style="fill:none;stroke-width:1.2;stroke-linecap:butt;stroke-linejoin:miter;stroke:rgb(0%,0%,0%);stroke-opacity:1;stroke-miterlimit:10;" d="M 108.0625 126.4375 L 136.75 135.351562 "/>
<path style="fill:none;stroke-width:1.2;stroke-linecap:butt;stroke-linejoin:miter;stroke:rgb(0%,0%,0%);stroke-opacity:1;stroke-miterlimit:10;" d="M 113.027344 120.578125 L 135.976562 127.707031 "/>
<path style="fill:none;stroke-width:1.2;stroke-linecap:butt;stroke-linejoin:miter;stroke:rgb(0%,0%,0%);stroke-opacity:1;stroke-miterlimit:10;" d="M 101.4375 97.136719 L 108.0625 126.4375 "/>
<path style="fill:none;stroke-width:1.2;stroke-linecap:butt;stroke-linejoin:miter;stroke:rgb(0%,0%,0%);stroke-opacity:1;stroke-miterlimit:10;" d="M 136.75 135.351562 L 158.8125 114.960938 "/>
<path style="fill:none;stroke-width:1.2;stroke-linecap:butt;stroke-linejoin:miter;stroke:rgb(0%,0%,0%);stroke-opacity:1;stroke-miterlimit:10;" d="M 158.8125 114.960938 L 152.183594 85.660156 "/>
<path style="fill:none;stroke-width:1.2;stroke-linecap:butt;stroke-linejoin:miter;stroke:rgb(0%,0%,0%);stroke-opacity:1;stroke-miterlimit:10;" d="M 165.042969 110.472656 L 159.742188 87.03125 "/>
<path style="fill:none;stroke-width:1.2;stroke-linecap:butt;stroke-linejoin:miter;stroke:rgb(0%,0%,0%);stroke-opacity:1;stroke-miterlimit:10;" d="M 187.5 123.875 L 158.8125 114.960938 "/>
<path style="fill:none;stroke-width:1.2;stroke-linecap:butt;stroke-linejoin:miter;stroke:rgb(0%,0%,0%);stroke-opacity:1;stroke-miterlimit:10;" d="M 152.183594 85.660156 L 123.496094 76.75 "/>
<path style="fill:none;stroke-width:1.2;stroke-linecap:butt;stroke-linejoin:miter;stroke:rgb(0%,0%,0%);stroke-opacity:1;stroke-miterlimit:10;" d="M 152.183594 85.660156 L 163.214844 75.46875 "/>
<path style="fill:none;stroke-width:1.2;stroke-linecap:butt;stroke-linejoin:miter;stroke:rgb(0%,0%,100%);stroke-opacity:1;stroke-miterlimit:10;" d="M 163.214844 75.46875 L 174.246094 65.273438 "/>
<path style="fill:none;stroke-width:1.2;stroke-linecap:butt;stroke-linejoin:miter;stroke:rgb(0%,0%,0%);stroke-opacity:1;stroke-miterlimit:10;" d="M 123.496094 76.75 L 101.4375 97.136719 "/>
<path style="fill:none;stroke-width:1.2;stroke-linecap:butt;stroke-linejoin:miter;stroke:rgb(0%,0%,0%);stroke-opacity:1;stroke-miterlimit:10;" d="M 126.089844 83.980469 L 108.4375 100.289062 "/>
<path style="fill:none;stroke-width:1.2;stroke-linecap:butt;stroke-linejoin:miter;stroke:rgb(0%,0%,100%);stroke-opacity:1;stroke-miterlimit:10;" d="M 174.246094 65.273438 L 188.589844 69.730469 "/>
<path style="fill:none;stroke-width:1.2;stroke-linecap:butt;stroke-linejoin:miter;stroke:rgb(0%,0%,0%);stroke-opacity:1;stroke-miterlimit:10;" d="M 188.589844 69.730469 L 202.933594 74.1875 "/>
<path style="fill:none;stroke-width:1.2;stroke-linecap:butt;stroke-linejoin:miter;stroke:rgb(0%,0%,100%);stroke-opacity:1;stroke-miterlimit:10;" d="M 175.019531 72.914062 L 186.492188 76.480469 "/>
<path style="fill:none;stroke-width:1.2;stroke-linecap:butt;stroke-linejoin:miter;stroke:rgb(0%,0%,0%);stroke-opacity:1;stroke-miterlimit:10;" d="M 186.492188 76.480469 L 197.96875 80.042969 "/>
<path style=" stroke:none;fill-rule:nonzero;fill:rgb(100%,100%,100%);fill-opacity:1;" d="M 170.246094 58.273438 L 179.246094 58.273438 L 179.246094 72.273438 L 170.246094 72.273438 Z M 170.246094 58.273438 "/>
<g style="fill:rgb(0%,0%,100%);fill-opacity:1;">
  <use xlink:href="#glyph0-1" x="170.246094" y="69.412109"/>
</g>
<path style="fill:none;stroke-width:1.2;stroke-linecap:butt;stroke-linejoin:miter;stroke:rgb(0%,0%,0%);stroke-opacity:1;stroke-miterlimit:10;" d="M 202.933594 74.1875 L 206.246094 88.835938 "/>
<path style="fill:none;stroke-width:1.2;stroke-linecap:butt;stroke-linejoin:miter;stroke:rgb(0%,0%,100%);stroke-opacity:1;stroke-miterlimit:10;" d="M 206.246094 88.835938 L 209.558594 103.484375 "/>
<path style="fill:none;stroke-width:1.2;stroke-linecap:butt;stroke-linejoin:miter;stroke:rgb(0%,0%,100%);stroke-opacity:1;stroke-miterlimit:10;" d="M 209.558594 103.484375 L 198.527344 113.679688 "/>
<path style="fill:none;stroke-width:1.2;stroke-linecap:butt;stroke-linejoin:miter;stroke:rgb(0%,0%,0%);stroke-opacity:1;stroke-miterlimit:10;" d="M 198.527344 113.679688 L 187.5 123.875 "/>
<path style="fill:none;stroke-width:1.2;stroke-linecap:butt;stroke-linejoin:miter;stroke:rgb(0%,0%,100%);stroke-opacity:1;stroke-miterlimit:10;" d="M 202.558594 100.332031 L 193.730469 108.488281 "/>
<path style="fill:none;stroke-width:1.2;stroke-linecap:butt;stroke-linejoin:miter;stroke:rgb(0%,0%,0%);stroke-opacity:1;stroke-miterlimit:10;" d="M 193.730469 108.488281 L 184.90625 116.644531 "/>
<path style=" stroke:none;fill-rule:nonzero;fill:rgb(100%,100%,100%);fill-opacity:1;" d="M 205.558594 96.484375 L 214.558594 96.484375 L 214.558594 110.484375 L 205.558594 110.484375 Z M 205.558594 96.484375 "/>
<g style="fill:rgb(0%,0%,100%);fill-opacity:1;">
  <use xlink:href="#glyph0-1" x="205.558594" y="107.623047"/>
</g>
<path style="fill:none;stroke-width:1.2;stroke-linecap:butt;stroke-linejoin:miter;stroke:rgb(0%,0%,0%);stroke-opacity:1;stroke-miterlimit:10;" d="M 187.5 123.875 L 190.8125 138.523438 "/>
<path style="fill:none;stroke-width:1.2;stroke-linecap:butt;stroke-linejoin:miter;stroke:rgb(0%,0%,100%);stroke-opacity:1;stroke-miterlimit:10;" d="M 190.8125 138.523438 L 194.125 153.175781 "/>
<path style="fill:none;stroke-width:1.2;stroke-linecap:butt;stroke-linejoin:miter;stroke:rgb(0%,0%,100%);stroke-opacity:1;stroke-miterlimit:10;" d="M 194.125 153.175781 L 208.46875 157.628906 "/>
<path style="fill:none;stroke-width:1.2;stroke-linecap:butt;stroke-linejoin:miter;stroke:rgb(0%,0%,0%);stroke-opacity:1;stroke-miterlimit:10;" d="M 208.46875 157.628906 L 222.8125 162.085938 "/>
<path style=" stroke:none;fill-rule:nonzero;fill:rgb(100%,100%,100%);fill-opacity:1;" d="M 185.125 146.175781 L 203.125 146.175781 L 203.125 160.175781 L 185.125 160.175781 Z M 185.125 146.175781 "/>
<g style="fill:rgb(0%,0%,100%);fill-opacity:1;">
  <use xlink:href="#glyph0-1" x="185.125" y="157.314453"/>
  <use xlink:href="#glyph0-2" x="194.101562" y="157.314453"/>
</g>
<path style="fill:none;stroke-width:1.2;stroke-linecap:butt;stroke-linejoin:miter;stroke:rgb(0%,0%,0%);stroke-opacity:1;stroke-miterlimit:10;" d="M 222.8125 162.085938 L 229.4375 191.386719 "/>
<path style="fill:none;stroke-width:1.2;stroke-linecap:butt;stroke-linejoin:miter;stroke:rgb(0%,0%,0%);stroke-opacity:1;stroke-miterlimit:10;" d="M 229.4375 191.386719 L 243.78125 195.84375 "/>
<path style="fill:none;stroke-width:1.2;stroke-linecap:butt;stroke-linejoin:miter;stroke:rgb(100%,0%,0%);stroke-opacity:1;stroke-miterlimit:10;" d="M 243.78125 195.84375 L 258.125 200.296875 "/>
<path style="fill:none;stroke-width:1.2;stroke-linecap:butt;stroke-linejoin:miter;stroke:rgb(100%,0%,0%);stroke-opacity:1;stroke-miterlimit:10;" d="M 258.125 200.296875 L 261.4375 214.949219 "/>
<path style="fill:none;stroke-width:1.2;stroke-linecap:butt;stroke-linejoin:miter;stroke:rgb(0%,0%,0%);stroke-opacity:1;stroke-miterlimit:10;" d="M 261.4375 214.949219 L 264.75 229.597656 "/>
<path style=" stroke:none;fill-rule:nonzero;fill:rgb(100%,100%,100%);fill-opacity:1;" d="M 253.125 193.296875 L 263.125 193.296875 L 263.125 207.296875 L 253.125 207.296875 Z M 253.125 193.296875 "/>
<g style="fill:rgb(100%,0%,0%);fill-opacity:1;">
  <use xlink:href="#glyph0-3" x="253.125" y="204.435547"/>
</g>
</g>
</svg>

<svg xmlns="http://www.w3.org/2000/svg" xmlns:xlink="http://www.w3.org/1999/xlink" width="300pt" height="300pt" viewBox="0 0 300 300"><defs><symbol overflow="visible"><path d="M.594 2.125V-8.47h6V2.126zm.672-.672h4.671V-7.78h-4.67zm0 0"/></symbol><symbol overflow="visible" id="a"><path d="M1.172-8.75h1.594l3.89 7.313V-8.75h1.14V0H6.204L2.328-7.313V0H1.172zm0 0"/></symbol><symbol overflow="visible" id="b"><path d="M1.172-8.75H2.36v3.594h4.296V-8.75h1.188V0H6.656v-4.172H2.36V0H1.17zm0 0"/></symbol><symbol overflow="visible" id="c"><path d="M4.734-7.953c-.867 0-1.554.324-2.062.97-.5.635-.75 1.51-.75 2.624 0 1.094.25 1.965.75 2.61.508.637 1.195.953 2.062.953.852 0 1.532-.316 2.032-.953.507-.645.765-1.516.765-2.61 0-1.113-.257-1.988-.764-2.624-.5-.645-1.18-.97-2.032-.97zm0-.953c1.22 0 2.192.414 2.922 1.234.74.824 1.11 1.93 1.11 3.313 0 1.376-.37 2.477-1.11 3.298C6.926-.24 5.953.17 4.734.17c-1.23 0-2.214-.41-2.953-1.234C1.04-1.882.673-2.984.673-4.36c0-1.382.367-2.488 1.11-3.312.738-.82 1.722-1.234 2.952-1.234zm0 0"/></symbol></defs><g><path fill="#fff" d="M0 0h300v300H0z"/><path d="M156.625 223.25l-14.344-4.457" stroke-width="1.2" stroke="#000" stroke-miterlimit="10" fill="none"/><path d="M142.28 218.793l-14.343-4.453M127.938 214.34l-11.032 10.19" stroke-width="1.2" stroke="#00f" stroke-miterlimit="10" fill="none"/><path d="M116.906 224.53l-11.03 10.197" stroke-width="1.2" stroke="#000" stroke-miterlimit="10" fill="none"/><path d="M127.938 214.34l-3.313-14.653" stroke-width="1.2" stroke="#00f" stroke-miterlimit="10" fill="none"/><path d="M124.625 199.688l-3.313-14.65" stroke-width="1.2" stroke="#000" stroke-miterlimit="10" fill="none"/><path d="M123.938 207.34h9v14h-9zm0 0" fill="#fff"/><use xlink:href="#a" x="123.938" y="218.479" fill="#00f"/><path d="M121.313 185.04l-28.688-8.915M92.625 176.125l-22.063 20.39M85.62 172.973l-17.647 16.312M86 146.824l6.625 29.3M70.563 196.516l-28.688-8.914M41.875 187.602l-6.625-29.3M48.105 183.113l-5.296-23.44M35.25 158.3l22.063-20.386M57.313 137.914L86 146.824M58.082 145.555l22.953 7.13M86 146.824l22.063-20.387M108.063 126.438l28.687 8.914M113.027 120.578l22.95 7.13M101.438 97.137l6.624 29.3M136.75 135.352l22.063-20.39M158.813 114.96l-6.63-29.3M165.043 110.473l-5.3-23.442M187.5 123.875l-28.688-8.914M152.184 85.66l-28.688-8.91M152.184 85.66l11.03-10.19" stroke-width="1.2" stroke="#000" stroke-miterlimit="10" fill="none"/><path d="M163.215 75.47l11.03-10.197" stroke-width="1.2" stroke="#00f" stroke-miterlimit="10" fill="none"/><path d="M123.496 76.75l-22.058 20.387M126.09 83.98l-17.653 16.31" stroke-width="1.2" stroke="#000" stroke-miterlimit="10" fill="none"/><path d="M174.246 65.273l14.344 4.457" stroke-width="1.2" stroke="#00f" stroke-miterlimit="10" fill="none"/><path d="M188.59 69.73l14.344 4.457" stroke-width="1.2" stroke="#000" stroke-miterlimit="10" fill="none"/><path d="M175.02 72.914l11.472 3.566" stroke-width="1.2" stroke="#00f" stroke-miterlimit="10" fill="none"/><path d="M186.492 76.48l11.477 3.563" stroke-width="1.2" stroke="#000" stroke-miterlimit="10" fill="none"/><path d="M170.246 58.273h9v14h-9zm0 0" fill="#fff"/><use xlink:href="#a" x="170.246" y="69.412" fill="#00f"/><path d="M202.934 74.188l3.312 14.648" stroke-width="1.2" stroke="#000" stroke-miterlimit="10" fill="none"/><path d="M206.246 88.836l3.313 14.648M209.56 103.484l-11.033 10.196" stroke-width="1.2" stroke="#00f" stroke-miterlimit="10" fill="none"/><path d="M198.527 113.68L187.5 123.875" stroke-width="1.2" stroke="#000" stroke-miterlimit="10" fill="none"/><path d="M202.56 100.332l-8.83 8.156" stroke-width="1.2" stroke="#00f" stroke-miterlimit="10" fill="none"/><path d="M193.73 108.488l-8.824 8.157" stroke-width="1.2" stroke="#000" stroke-miterlimit="10" fill="none"/><path d="M205.56 96.484h9v14h-9zm0 0" fill="#fff"/><use xlink:href="#a" x="205.559" y="107.623" fill="#00f"/><path d="M187.5 123.875l3.313 14.648" stroke-width="1.2" stroke="#000" stroke-miterlimit="10" fill="none"/><path d="M190.813 138.523l3.312 14.653M194.125 153.176l14.344 4.453" stroke-width="1.2" stroke="#00f" stroke-miterlimit="10" fill="none"/><path d="M208.47 157.63l14.343 4.456" stroke-width="1.2" stroke="#000" stroke-miterlimit="10" fill="none"/><path d="M185.125 146.176h18v14h-18zm0 0" fill="#fff"/><g fill="#00f"><use xlink:href="#a" x="185.125" y="157.314"/><use xlink:href="#b" x="194.102" y="157.314"/></g><path d="M222.813 162.086l6.625 29.3M229.438 191.387l14.343 4.457" stroke-width="1.2" stroke="#000" stroke-miterlimit="10" fill="none"/><path d="M243.78 195.844l14.345 4.453M258.125 200.297l3.313 14.652" stroke-width="1.2" stroke="#f00" stroke-miterlimit="10" fill="none"/><path d="M261.438 214.95l3.312 14.648" stroke-width="1.2" stroke="#000" stroke-miterlimit="10" fill="none"/><path d="M253.125 193.297h10v14h-10zm0 0" fill="#fff"/><use xlink:href="#c" x="253.125" y="204.436" fill="#f00"/></g></svg>
